;FLAVOR:Marlin
;TIME:2839
;Filament used: 1.61939m
;Layer height: 0.13125
;Generated with Cura_SteamEngine 3.4.1
M190 S65
M104 S205
M109 S205
M82 ;absolute extrusion mode
G21;(metric values)
G90;(absolute positioning)
M82;(set extruder to absolute mode)
M107;(start with the fan off)
G28;(Home the printer)
G92 E0;(Reset the extruder to 0)
G0 Z5 E5 F500;(Move up and prime the nozzle)
G0 X-1 Z0;(Move outside the printable area)
G1 Y60 E8 F500;(Draw a priming/wiping line to the rear)
G1 X-1;(Move a little closer to the print area)
G1 Y10 E16 F500;(draw more priming/wiping)
G1 E15 F250;(Small retract)
G92 E0;(Zero the extruder)
G92 E0
G1 F2400 E-2.5
;LAYER_COUNT:114
;LAYER:0
M107
G0 F4320 X50.844 Y32.311 Z0.262
;TYPE:SKIRT
G1 F2400 E0
G1 F1800 X51.81 Y30.963 E0.06323
G1 X52.386 Y30.291 E0.09697
G1 X53.586 Y29.117 E0.16097
G1 X54.137 Y28.65 E0.18851
G1 X55.529 Y27.631 E0.25428
G1 X56.238 Y27.197 E0.28597
G1 X57.821 Y26.397 E0.35359
G1 X58.41 Y26.144 E0.37803
G1 X59.693 Y25.688 E0.42994
G1 X60.232 Y25.53 E0.45135
G1 X61.164 Y25.311 E0.48785
G1 X61.768 Y25.207 E0.51122
G1 X63.336 Y25.034 E0.57136
G1 X63.739 Y25.005 E0.58676
G1 X66.302 Y24.927 E0.68452
G1 X66.702 Y24.931 E0.69977
G1 X69.28 Y25.056 E0.79817
G1 X69.67 Y25.09 E0.8131
G1 X71.286 Y25.294 E0.8752
G1 X71.904 Y25.411 E0.89918
G1 X73.073 Y25.709 E0.94517
G1 X73.505 Y25.84 E0.96238
G1 X75.421 Y26.515 E1.03983
G1 X76.061 Y26.792 E1.06641
G1 X78.341 Y27.968 E1.16422
G1 X79.136 Y28.476 E1.20019
G1 X81.066 Y29.981 E1.29349
G1 X81.713 Y30.584 E1.32721
G1 X83.326 Y32.372 E1.41902
G1 X83.881 Y33.113 E1.45431
G1 X85.161 Y35.195 E1.54749
G1 X85.566 Y36.009 E1.58215
G1 X86.483 Y38.36 E1.67836
G1 X86.719 Y39.146 E1.70965
G1 X87.274 Y41.75 E1.81115
G1 X87.365 Y42.361 E1.8347
G1 X87.555 Y44.509 E1.91691
G1 X87.573 Y45.086 E1.93892
G1 X87.494 Y48.158 E2.05608
G1 X87.442 Y48.768 E2.07942
G1 X87.141 Y50.809 E2.15807
G1 X87.003 Y51.453 E2.18318
G1 X86.466 Y53.348 E2.25827
G1 X86.235 Y53.993 E2.28439
G1 X85.175 Y56.423 E2.38546
G1 X84.83 Y57.078 E2.41369
G1 X83.91 Y58.554 E2.48
G1 X83.523 Y59.093 E2.50529
G1 X82.133 Y60.784 E2.58875
G1 X81.477 Y61.447 E2.6243
G1 X79.816 Y62.842 E2.707
G1 X79.218 Y63.275 E2.73515
G1 X77.897 Y64.09 E2.79432
G1 X85.651 Y71.868 E3.21304
G1 X86.072 Y72.346 E3.23732
G1 X86.429 Y72.874 E3.26162
G1 X86.717 Y73.441 E3.28586
G1 X86.932 Y74.041 E3.31016
G1 X87.07 Y74.663 E3.33445
G1 X87.13 Y75.297 E3.35873
G1 X87.109 Y75.933 E3.38299
G1 X87.009 Y76.562 E3.40727
G1 X86.831 Y77.174 E3.43157
G1 X86.577 Y77.758 E3.45585
G1 X86.253 Y78.306 E3.48012
G1 X85.862 Y78.809 E3.50441
G1 X85.591 Y79.094 E3.51941
G1 X82.553 Y82.041 E3.68077
G1 X82.069 Y82.455 E3.70505
G1 X81.536 Y82.805 E3.72936
G1 X80.965 Y83.085 E3.75361
G1 X80.362 Y83.292 E3.77791
G1 X79.739 Y83.422 E3.80217
G1 X79.019 Y83.473 E3.82969
G1 X59.679 Y83.473 E4.56702
G1 X59.679 Y88.793 E4.76984
G1 X59.639 Y89.429 E4.79414
G1 X59.52 Y90.054 E4.81839
G1 X59.323 Y90.66 E4.84269
G1 X59.052 Y91.236 E4.86695
G1 X58.711 Y91.774 E4.89124
G1 X58.305 Y92.265 E4.91553
G1 X57.841 Y92.701 E4.9398
G1 X57.326 Y93.076 E4.96409
G1 X56.755 Y93.39 E4.98893
G1 X54.744 Y94.331 E5.07358
G1 X54.151 Y94.564 E5.09787
G1 X53.75 Y94.675 E5.11373
G1 X52.947 Y94.863 E5.14517
G1 X52.319 Y94.969 E5.16946
G1 X51.847 Y94.997 E5.18748
G1 X44.756 Y95.076 E5.45784
G1 X44.12 Y95.043 E5.48212
G1 X43.493 Y94.931 E5.5064
G1 X42.885 Y94.741 E5.53069
G1 X42.305 Y94.476 E5.555
G1 X41.764 Y94.141 E5.57926
G1 X41.268 Y93.741 E5.60355
G1 X40.827 Y93.282 E5.62782
G1 X40.447 Y92.771 E5.65209
G1 X40.133 Y92.217 E5.67637
G1 X39.892 Y91.627 E5.70067
G1 X39.726 Y91.012 E5.72495
G1 X39.638 Y90.382 E5.74921
G1 X39.625 Y89.914 E5.76706
G1 X39.657 Y88.045 E5.83832
G1 X39.708 Y87.41 E5.86261
G1 X39.861 Y86.703 E5.89019
G1 X40.003 Y86.219 E5.90942
G1 X40.221 Y85.621 E5.93368
G1 X40.511 Y85.054 E5.95796
G1 X40.733 Y84.712 E5.97351
G1 X41.067 Y84.241 E5.99552
G1 X41.634 Y83.573 E6.02892
G1 X41.735 Y83.473 E6.03434
G1 X37.5 Y83.473 E6.1958
G1 X36.864 Y83.433 E6.22009
G1 X36.239 Y83.314 E6.24435
G1 X35.633 Y83.117 E6.26864
G1 X35.057 Y82.846 E6.29291
G1 X34.519 Y82.505 E6.3172
G1 X34.028 Y82.099 E6.34149
G1 X33.592 Y81.635 E6.36576
G1 X33.217 Y81.12 E6.39005
G1 X32.91 Y80.563 E6.41429
G1 X32.675 Y79.971 E6.43858
G1 X32.516 Y79.354 E6.46287
G1 X32.435 Y78.722 E6.48716
G1 X32.425 Y78.398 E6.49952
G1 X32.425 Y73.726 E6.67764
G1 X32.465 Y73.09 E6.70193
G1 X32.584 Y72.465 E6.72619
G1 X32.781 Y71.859 E6.75048
G1 X33.052 Y71.283 E6.77475
G1 X33.393 Y70.745 E6.79903
G1 X33.799 Y70.254 E6.82332
G1 X34.263 Y69.818 E6.8476
G1 X34.778 Y69.443 E6.87188
G1 X35.335 Y69.136 E6.89613
G1 X35.927 Y68.901 E6.92041
G1 X36.544 Y68.742 E6.94471
G1 X37.176 Y68.661 E6.969
G1 X37.5 Y68.651 E6.98136
G1 X41.89 Y68.651 E7.14872
G1 X41.934 Y56.712 E7.60389
G1 X41.942 Y56.443 E7.61415
G1 X42.132 Y53.105 E7.74162
G1 X42.244 Y52.298 E7.77268
G1 X42.404 Y51.574 E7.80095
G1 X42.68 Y50.703 E7.83578
G1 X43.549 Y48.635 E7.9213
G1 X43.832 Y48.064 E7.9456
G1 X44.185 Y47.534 E7.96987
G1 X44.412 Y47.255 E7.98359
G1 X46.199 Y45.217 E8.08692
G1 X46.648 Y44.766 E8.11118
G1 X47.15 Y44.374 E8.13547
G1 X47.676 Y44.059 E8.15884
G1 X49.059 Y43.341 E8.21825
G1 X48.928 Y42.967 E8.23336
G1 X48.756 Y42.354 E8.25763
G1 X48.68 Y41.906 E8.27495
G1 X48.555 Y40.89 E8.31398
G1 X48.517 Y40.254 E8.33827
G1 X48.537 Y39.825 E8.35464
G1 X48.711 Y37.848 E8.43031
G1 X48.806 Y37.218 E8.4546
G1 X48.909 Y36.822 E8.4702
G1 X49.383 Y35.257 E8.53254
G1 X49.699 Y34.462 E8.56515
G1 X50.428 Y33.001 E8.6274
G1 X50.484 Y32.908 E8.63154
G0 F1620 X50.844 Y32.311
G0 F4320 X51.128 Y32.515
G1 F2400 E8.65811
G1 F1800 X52.094 Y31.167 E8.72134
G1 X52.631 Y30.542 E8.75275
G1 X53.831 Y29.368 E8.81676
G1 X54.344 Y28.932 E8.84242
G1 X55.736 Y27.913 E8.90819
G1 X56.396 Y27.509 E8.93769
G1 X57.979 Y26.709 E9.00531
G1 X58.528 Y26.474 E9.02808
G1 X59.811 Y26.018 E9.07999
G1 X60.312 Y25.87 E9.09991
G1 X61.244 Y25.651 E9.13641
G1 X61.807 Y25.554 E9.15819
G1 X63.375 Y25.381 E9.21833
G1 X63.749 Y25.355 E9.23262
G1 X66.312 Y25.277 E9.33038
G1 X66.685 Y25.281 E9.3446
G1 X69.263 Y25.406 E9.443
G1 X69.626 Y25.437 E9.45689
G1 X71.242 Y25.641 E9.51899
G1 X71.817 Y25.75 E9.5413
G1 X72.986 Y26.048 E9.5873
G1 X73.389 Y26.17 E9.60335
G1 X75.305 Y26.845 E9.6808
G1 X75.901 Y27.103 E9.70556
G1 X78.181 Y28.279 E9.80336
G1 X78.921 Y28.752 E9.83684
G1 X80.851 Y30.257 E9.93015
G1 X81.453 Y30.818 E9.96152
G1 X83.066 Y32.606 E10.05333
G1 X83.583 Y33.296 E10.0862
G1 X84.863 Y35.378 E10.17937
G1 X85.24 Y36.136 E10.21165
G1 X86.157 Y38.487 E10.30786
G1 X86.376 Y39.219 E10.33699
G1 X86.931 Y41.823 E10.43849
G1 X87.017 Y42.392 E10.46043
G1 X87.207 Y44.54 E10.54264
G1 X87.223 Y45.077 E10.56312
G1 X87.144 Y48.149 E10.68028
G1 X87.095 Y48.717 E10.70202
G1 X86.794 Y50.758 E10.78067
G1 X86.666 Y51.357 E10.80402
G1 X86.129 Y53.252 E10.87911
G1 X85.914 Y53.853 E10.90345
G1 X84.854 Y56.283 E11.00452
G1 X84.533 Y56.893 E11.0308
G1 X83.613 Y58.369 E11.09711
G1 X83.253 Y58.87 E11.12063
G1 X81.863 Y60.561 E11.20408
G1 X81.252 Y61.179 E11.23721
G1 X79.591 Y62.574 E11.31991
G1 X79.034 Y62.977 E11.34612
G1 X77.61 Y63.856 E11.40992
G1 X77.32 Y64.007 E11.42238
G1 X85.403 Y72.115 E11.85886
G1 X85.808 Y72.578 E11.88231
G1 X86.149 Y73.089 E11.90573
G1 X86.421 Y73.64 E11.92916
G1 X86.619 Y74.221 E11.95256
G1 X86.74 Y74.824 E11.97601
G1 X86.782 Y75.437 E11.99943
G1 X86.744 Y76.05 E12.02285
G1 X86.626 Y76.653 E12.04627
G1 X86.432 Y77.236 E12.0697
G1 X86.163 Y77.789 E12.09314
G1 X85.825 Y78.302 E12.11657
G1 X85.347 Y78.842 E12.14406
G1 X82.309 Y81.789 E12.30542
G1 X81.841 Y82.188 E12.32887
G1 X81.325 Y82.522 E12.3523
G1 X80.771 Y82.786 E12.3757
G1 X80.186 Y82.977 E12.39916
G1 X79.582 Y83.089 E12.42258
G1 X79.019 Y83.123 E12.44408
G1 X59.329 Y83.123 E13.19475
G1 X59.329 Y88.793 E13.41092
G1 X59.289 Y89.406 E13.43434
G1 X59.17 Y90.009 E13.45777
G1 X58.973 Y90.591 E13.4812
G1 X58.703 Y91.143 E13.50462
G1 X58.363 Y91.655 E13.52805
G1 X57.96 Y92.119 E13.55149
G1 X57.5 Y92.526 E13.5749
G1 X56.991 Y92.871 E13.59834
G1 X56.607 Y93.073 E13.61489
G1 X54.596 Y94.014 E13.69953
G1 X54.023 Y94.237 E13.72297
G1 X53.67 Y94.335 E13.73694
G1 X52.867 Y94.523 E13.76838
G1 X52.261 Y94.623 E13.7918
G1 X51.843 Y94.647 E13.80776
G1 X44.752 Y94.726 E14.07812
G1 X44.138 Y94.693 E14.10156
G1 X43.534 Y94.58 E14.12499
G1 X42.95 Y94.39 E14.1484
G1 X42.395 Y94.126 E14.17183
G1 X41.879 Y93.792 E14.19526
G1 X41.411 Y93.394 E14.21869
G1 X40.998 Y92.939 E14.24211
G1 X40.648 Y92.434 E14.26554
G1 X40.367 Y91.887 E14.28898
G1 X40.159 Y91.309 E14.3124
G1 X40.027 Y90.709 E14.33582
G1 X39.975 Y89.92 E14.36597
G1 X40.007 Y88.051 E14.43723
G1 X40.057 Y87.439 E14.46064
G1 X40.197 Y86.802 E14.48551
G1 X40.339 Y86.318 E14.50474
G1 X40.55 Y85.741 E14.52816
G1 X40.834 Y85.196 E14.55159
G1 X41.019 Y84.915 E14.56442
G1 X41.353 Y84.444 E14.58643
G1 X41.88 Y83.821 E14.61754
G1 X42.221 Y83.483 E14.63585
G1 X42.221 Y83.123 E14.64957
G1 X37.5 Y83.123 E14.82956
G1 X36.887 Y83.083 E14.85298
G1 X36.284 Y82.964 E14.87641
G1 X35.702 Y82.767 E14.89983
G1 X35.15 Y82.497 E14.92326
G1 X34.638 Y82.157 E14.94669
G1 X34.174 Y81.754 E14.97012
G1 X33.767 Y81.294 E14.99354
G1 X33.422 Y80.785 E15.01698
G1 X33.147 Y80.236 E15.04039
G1 X32.945 Y79.655 E15.06384
G1 X32.821 Y79.054 E15.08724
G1 X32.775 Y78.398 E15.11231
G1 X32.775 Y73.726 E15.29043
G1 X32.815 Y73.113 E15.31385
G1 X32.934 Y72.51 E15.33728
G1 X33.131 Y71.928 E15.3607
G1 X33.401 Y71.376 E15.38413
G1 X33.741 Y70.864 E15.40756
G1 X34.144 Y70.4 E15.43099
G1 X34.604 Y69.993 E15.45441
G1 X35.113 Y69.648 E15.47785
G1 X35.662 Y69.373 E15.50126
G1 X36.243 Y69.171 E15.52471
G1 X36.844 Y69.047 E15.54811
G1 X37.5 Y69.001 E15.57318
G1 X42.238 Y69.001 E15.75381
G1 X42.284 Y56.713 E16.22229
G1 X42.292 Y56.462 E16.23186
G1 X42.482 Y53.124 E16.35933
G1 X42.585 Y52.373 E16.38823
G1 X42.745 Y51.649 E16.41649
G1 X43.003 Y50.839 E16.4489
G1 X43.872 Y48.771 E16.53442
G1 X44.146 Y48.221 E16.55785
G1 X44.675 Y47.486 E16.59237
G1 X46.462 Y45.448 E16.69571
G1 X46.897 Y45.013 E16.71916
G1 X47.384 Y44.638 E16.7426
G1 X47.838 Y44.37 E16.7627
G1 X49.491 Y43.512 E16.8337
G1 X49.259 Y42.851 E16.86041
G1 X49.093 Y42.259 E16.88385
G1 X49.027 Y41.863 E16.89915
G1 X48.902 Y40.847 E16.93818
G1 X48.867 Y40.233 E16.96163
G1 X48.885 Y39.856 E16.97602
G1 X49.059 Y37.879 E17.05168
G1 X49.153 Y37.271 E17.07513
G1 X49.244 Y36.923 E17.08885
G1 X49.718 Y35.358 E17.15119
G1 X50.012 Y34.618 E17.18155
G1 X50.741 Y33.157 E17.24379
G1 X50.768 Y33.112 E17.24579
G0 F1620 X51.128 Y32.515
G0 F4320 X51.413 Y32.719
G1 F2400 E17.27237
G1 F1800 X52.379 Y31.371 E17.33559
G1 X52.875 Y30.792 E17.36466
G1 X54.075 Y29.618 E17.42866
G1 X54.551 Y29.215 E17.45244
G1 X55.943 Y28.196 E17.51821
G1 X56.554 Y27.821 E17.54554
G1 X58.137 Y27.021 E17.61316
G1 X58.645 Y26.804 E17.63422
G1 X59.928 Y26.348 E17.68613
G1 X60.392 Y26.211 E17.70458
G1 X61.324 Y25.992 E17.74107
G1 X61.845 Y25.902 E17.76123
G1 X63.413 Y25.729 E17.82137
G1 X63.76 Y25.705 E17.83463
G1 X66.323 Y25.627 E17.93239
G1 X66.668 Y25.63 E17.94555
G1 X69.246 Y25.755 E18.04395
G1 X69.582 Y25.784 E18.0568
G1 X71.198 Y25.988 E18.1189
G1 X71.731 Y26.09 E18.13959
G1 X72.9 Y26.388 E18.18558
G1 X73.273 Y26.501 E18.20044
G1 X75.189 Y27.176 E18.27789
G1 X75.741 Y27.414 E18.30081
G1 X78.021 Y28.59 E18.39861
G1 X78.705 Y29.028 E18.42958
G1 X80.635 Y30.533 E18.52288
G1 X81.193 Y31.052 E18.55194
G1 X82.806 Y32.84 E18.64374
G1 X83.285 Y33.48 E18.67422
G1 X84.565 Y35.562 E18.7674
G1 X84.914 Y36.263 E18.79725
G1 X85.831 Y38.614 E18.89346
G1 X86.034 Y39.292 E18.92044
G1 X86.589 Y41.896 E19.02194
G1 X86.668 Y42.423 E19.04226
G1 X86.858 Y44.571 E19.12447
G1 X86.874 Y45.068 E19.14343
G1 X86.795 Y48.14 E19.26059
G1 X86.749 Y48.666 E19.28072
G1 X86.448 Y50.707 E19.35937
G1 X86.329 Y51.262 E19.38101
G1 X85.792 Y53.157 E19.4561
G1 X85.593 Y53.713 E19.47861
G1 X84.533 Y56.143 E19.57969
G1 X84.236 Y56.708 E19.60402
G1 X83.316 Y58.184 E19.67033
G1 X82.983 Y58.648 E19.6921
G1 X81.593 Y60.339 E19.77556
G1 X81.027 Y60.911 E19.80624
G1 X79.366 Y62.306 E19.88893
G1 X78.85 Y62.679 E19.9132
G1 X77.426 Y63.558 E19.977
G1 X76.869 Y63.849 E20.00096
G1 X76.729 Y63.91 E20.00678
G1 X85.155 Y72.362 E20.46178
G1 X85.544 Y72.808 E20.48435
G1 X85.868 Y73.302 E20.50687
G1 X86.123 Y73.836 E20.52943
G1 X86.304 Y74.399 E20.55197
G1 X86.407 Y74.981 E20.57451
G1 X86.43 Y75.572 E20.59706
G1 X86.374 Y76.161 E20.61961
G1 X86.239 Y76.736 E20.64213
G1 X86.027 Y77.288 E20.66467
G1 X85.743 Y77.807 E20.68723
G1 X85.392 Y78.283 E20.70978
G1 X85.103 Y78.591 E20.72588
G1 X82.065 Y81.538 E20.88724
G1 X81.614 Y81.92 E20.90977
G1 X81.115 Y82.238 E20.93233
G1 X80.578 Y82.486 E20.95488
G1 X80.013 Y82.659 E20.97741
G1 X79.429 Y82.754 E20.99997
G1 X79.019 Y82.773 E21.01562
G1 X58.979 Y82.773 E21.77963
G1 X58.979 Y88.793 E22.00914
G1 X58.939 Y89.383 E22.03168
G1 X58.82 Y89.962 E22.05422
G1 X58.624 Y90.52 E22.07677
G1 X58.354 Y91.046 E22.09931
G1 X58.016 Y91.531 E22.12185
G1 X57.616 Y91.966 E22.14438
G1 X57.16 Y92.343 E22.16693
G1 X56.458 Y92.756 E22.19798
G1 X54.447 Y93.697 E22.28263
G1 X53.896 Y93.91 E22.30515
G1 X53.59 Y93.994 E22.31725
G1 X52.787 Y94.182 E22.34869
G1 X52.204 Y94.277 E22.37121
G1 X51.839 Y94.297 E22.38515
G1 X44.748 Y94.376 E22.6555
G1 X44.157 Y94.342 E22.67807
G1 X43.577 Y94.23 E22.70059
G1 X43.017 Y94.04 E22.72314
G1 X42.488 Y93.776 E22.74568
G1 X41.999 Y93.443 E22.76823
G1 X41.559 Y93.048 E22.79078
G1 X41.177 Y92.597 E22.81331
G1 X40.859 Y92.098 E22.83587
G1 X40.612 Y91.561 E22.8584
G1 X40.439 Y90.996 E22.88093
G1 X40.343 Y90.412 E22.90349
G1 X40.325 Y89.926 E22.92204
G1 X40.357 Y88.057 E22.9933
G1 X40.407 Y87.468 E23.01584
G1 X40.533 Y86.9 E23.03802
G1 X40.675 Y86.416 E23.05725
G1 X40.879 Y85.862 E23.07975
G1 X41.304 Y85.117 E23.11245
G1 X41.638 Y84.646 E23.13447
G1 X42.127 Y84.07 E23.16327
G1 X42.571 Y83.63 E23.1871
G1 X42.571 Y82.773 E23.21978
G1 X37.5 Y82.773 E23.41311
G1 X36.91 Y82.733 E23.43565
G1 X36.331 Y82.614 E23.45819
G1 X35.773 Y82.418 E23.48073
G1 X35.247 Y82.148 E23.50328
G1 X34.762 Y81.81 E23.52581
G1 X34.327 Y81.41 E23.54834
G1 X33.95 Y80.954 E23.5709
G1 X33.637 Y80.452 E23.59345
G1 X33.396 Y79.913 E23.61596
G1 X33.229 Y79.345 E23.63853
G1 X33.14 Y78.761 E23.66106
G1 X33.125 Y78.398 E23.67491
G1 X33.125 Y73.726 E23.85302
G1 X33.165 Y73.136 E23.87557
G1 X33.284 Y72.557 E23.8981
G1 X33.48 Y71.999 E23.92065
G1 X33.75 Y71.473 E23.94319
G1 X34.088 Y70.988 E23.96573
G1 X34.488 Y70.553 E23.98826
G1 X34.944 Y70.176 E24.01082
G1 X35.446 Y69.863 E24.03337
G1 X35.985 Y69.622 E24.05588
G1 X36.553 Y69.455 E24.07845
G1 X37.137 Y69.366 E24.10097
G1 X37.5 Y69.351 E24.11482
G1 X42.587 Y69.351 E24.30876
G1 X42.634 Y56.715 E24.79051
G1 X42.641 Y56.482 E24.79939
G1 X42.831 Y53.144 E24.92686
G1 X42.927 Y52.449 E24.95361
G1 X43.087 Y51.725 E24.98188
G1 X43.326 Y50.974 E25.01192
G1 X44.195 Y48.906 E25.09744
G1 X44.46 Y48.378 E25.11996
G1 X44.938 Y47.717 E25.15106
G1 X46.725 Y45.679 E25.2544
G1 X47.144 Y45.261 E25.27696
G1 X47.616 Y44.904 E25.29953
G1 X47.999 Y44.68 E25.31644
G1 X49.921 Y43.682 E25.39901
G1 X49.589 Y42.735 E25.43726
G1 X49.431 Y42.165 E25.45981
G1 X49.375 Y41.82 E25.47314
G1 X49.25 Y40.804 E25.51217
G1 X49.217 Y40.214 E25.53469
G1 X49.234 Y39.886 E25.54722
G1 X49.408 Y37.909 E25.62288
G1 X49.499 Y37.325 E25.64541
G1 X49.579 Y37.025 E25.65725
G1 X50.053 Y35.46 E25.71959
G1 X50.325 Y34.775 E25.74769
G1 X51.053 Y33.316 E25.80985
G0 F1620 X51.054 Y33.314
G0 X51.413 Y32.719
G0 F4320 X51.697 Y32.922
G1 F2400 E25.83643
G1 F1800 X52.663 Y31.574 E25.89965
G1 X53.12 Y31.042 E25.92639
G1 X54.32 Y29.868 E25.99039
G1 X54.757 Y29.497 E26.01225
G1 X56.149 Y28.478 E26.07802
G1 X56.712 Y28.134 E26.10317
G1 X58.295 Y27.334 E26.17079
G1 X58.762 Y27.133 E26.19017
G1 X60.045 Y26.677 E26.24208
G1 X60.472 Y26.552 E26.25905
G1 X61.404 Y26.333 E26.29555
G1 X61.884 Y26.25 E26.31412
G1 X63.452 Y26.077 E26.37426
G1 X63.771 Y26.055 E26.38645
G1 X66.334 Y25.977 E26.48421
G1 X66.651 Y25.98 E26.49629
G1 X69.229 Y26.105 E26.59469
G1 X69.538 Y26.132 E26.60652
G1 X71.154 Y26.336 E26.66862
G1 X71.644 Y26.429 E26.68763
G1 X72.813 Y26.727 E26.73362
G1 X73.156 Y26.831 E26.74729
